src/categories-icons-sprite/categories/svg-cat-prod-animals.svg

<svg width="37" height="30" viewBox="0 0 37 30" fill="none" xmlns="http://www.w3.org/2000/svg">
<path class="p-8F562F" d="M7.06397 8.78022L6.48382 8.35869C4.66171 7.03486 2.10234 7.44027 0.778652 9.26231H0.77858C-0.545185 11.0843 -0.139846 13.6437 1.68226 14.9676L2.26241 15.3891C2.98579 15.9147 3.82538 16.1677 4.65781 16.1677C5.92195 16.1677 7.16948 15.5841 7.96773 14.4855C9.29135 12.6634 8.88601 10.104 7.06397 8.78022Z" fill="#58ADE5"/>
<path class="p-4C250B" d="M36.2215 9.35951C34.8978 7.53747 32.3383 7.13198 30.5163 8.45589L29.9361 8.87742C28.1141 10.2012 27.7087 12.7606 29.0325 14.5827C29.8308 15.6814 31.0782 16.2649 32.3424 16.2649C33.1747 16.2649 34.0145 16.0118 34.7378 15.4863L35.3179 15.0648C37.14 13.7409 37.5453 11.1815 36.2215 9.35951Z" fill="#4D98CB"/>
<path class="p-8F562F" d="M9.32985 7.16387C9.89013 8.88806 11.4953 9.98658 13.2174 9.98658C13.6346 9.98658 14.059 9.92204 14.4767 9.78633H14.4768C15.5143 9.44921 16.3586 8.72814 16.8539 7.75602C17.3493 6.7839 17.4363 5.67708 17.0991 4.63948L16.5094 2.82438C16.1723 1.78679 15.4513 0.942582 14.4791 0.447272C13.507 -0.0481097 12.4001 -0.13519 11.3626 0.202002C10.325 0.539122 9.48074 1.26012 8.98536 2.23231C8.48998 3.20443 8.4029 4.31125 8.74009 5.34885L9.32985 7.16387Z" fill="#58ADE5"/>
<path class="p-4C250B" d="M22.5234 9.82315C22.9413 9.95886 23.3654 10.0234 23.7828 10.0234C25.5047 10.0234 27.11 8.92488 27.6703 7.20069L28.2601 5.38559C28.9561 3.24356 27.7796 0.934744 25.6376 0.238824C23.4957 -0.457095 21.1869 0.71932 20.4909 2.86128L19.9012 4.67631C19.5641 5.7139 19.6511 6.82072 20.1464 7.79284C20.6415 8.76503 21.4858 9.4861 22.5234 9.82315Z" fill="#4D98CB"/>
<path class="p-4C250B" d="M18.5003 11.4673L17.0537 20.6535L18.5003 28.646C19.1295 28.646 19.7585 28.8006 20.332 29.1099C21.2353 29.5972 22.2159 29.8399 23.1952 29.8398C24.26 29.8397 25.3231 29.5526 26.2815 28.9806C28.1211 27.8827 29.2195 25.9481 29.2195 23.8056V22.1861C29.2195 19.3159 28.0999 16.6194 26.0668 14.5934C24.0426 12.5762 21.3581 11.4697 18.5003 11.4673Z" fill="#4D98CB"/>
<path class="p-8F562F" d="M18.4626 11.4673C12.5729 11.4877 7.78125 16.3431 7.78125 22.291V23.8059C7.78125 25.9484 8.87955 27.883 10.7193 28.9809C12.5589 30.0788 14.7831 30.1273 16.6687 29.1102C17.2422 28.801 17.8713 28.6462 18.5004 28.6462V11.4677C18.4877 11.4677 18.4751 11.4672 18.4626 11.4673Z" fill="#58ADE5"/>
</svg>

<svg width="37" height="30" fill="none" xmlns="http://www.w3.org/2000/svg"><path class="p-8F562F" d="M7.064 8.78l-.58-.421a4.089 4.089 0 00-5.705.903 4.09 4.09 0 00.903 5.706l.58.421a4.062 4.062 0 002.396.779A4.082 4.082 0 007.064 8.78z" fill="#58ADE5"/><path class="p-4C250B" d="M36.221 9.36a4.089 4.089 0 00-5.705-.904l-.58.421a4.082 4.082 0 002.406 7.387c.833 0 1.672-.252 2.396-.778l.58-.421a4.09 4.09 0 00.904-5.705z" fill="#4D98CB"/><path class="p-8F562F" d="M9.33 7.164a4.092 4.092 0 005.147 2.622 4.058 4.058 0 002.377-2.03 4.057 4.057 0 00.245-3.117l-.59-1.815A4.057 4.057 0 0014.48.447a4.057 4.057 0 00-3.116-.245 4.058 4.058 0 00-2.378 2.03A4.057 4.057 0 008.74 5.35l.59 1.815z" fill="#58ADE5"/><path class="p-4C250B" d="M22.523 9.823a4.092 4.092 0 005.147-2.622l.59-1.815A4.09 4.09 0 0025.638.239 4.09 4.09 0 0020.49 2.86l-.59 1.815a4.058 4.058 0 00.245 3.117 4.056 4.056 0 002.377 2.03zM18.5 11.467l-1.446 9.187 1.446 7.992c.63 0 1.259.155 1.832.464.903.487 1.884.73 2.863.73a6.012 6.012 0 003.087-.86 5.977 5.977 0 002.938-5.174v-1.62c0-2.87-1.12-5.567-3.153-7.593a10.655 10.655 0 00-7.567-3.126z" fill="#4D98CB"/><path class="p-8F562F" d="M18.463 11.467c-5.89.02-10.682 4.876-10.682 10.824v1.515a5.976 5.976 0 002.938 5.175 5.976 5.976 0 005.95.13 3.856 3.856 0 011.831-.465V11.468h-.037z" fill="#58ADE5"/></svg>
